packages/core/src/svgs/tokens/branded/BORA.svg

<svg width="24" height="24" viewBox="0 0 24 24" fill="none" xmlns="http://www.w3.org/2000/svg">
<path fill-rule="evenodd" clip-rule="evenodd" d="M4.89366 2.00031H13.0435C16.2371 2.00031 21.9306 5.06896 21.9994 11.6438C22.0431 15.7686 19.7619 21.9997 11.9684 21.9997C7.40607 21.9997 2 18.6248 2 12.8625V5.06896C2 4.08149 2.93747 2.00031 4.89366 2.00031ZM7.34359 5.12515C8.03731 5.12515 8.2498 5.62514 8.2498 5.87513V7.50633C8.84354 7.1001 10.656 6.38136 12.2621 6.38136C14.2996 6.38136 18.2495 8.09382 18.2495 12.2375C18.2495 16.3748 15.0496 18.181 12.2621 18.2497C9.47474 18.3123 7.10609 16.5372 6.41235 14.6686C6.33737 14.3561 6.32486 13.6186 6.88735 13.3187C7.43733 13.0187 8.11231 13.425 8.2498 13.8436C8.50605 14.6248 10.1622 16.3748 12.2621 16.3748C14.6559 16.3748 16.3745 14.6686 16.3745 12.2375C16.3745 9.79995 14.4121 8.25006 12.2621 8.25006C10.1123 8.25006 8.76854 9.62496 8.09981 11.0312C7.91856 11.4249 7.58107 11.6437 7.13734 11.4063C6.88735 11.275 6.37486 10.9062 6.37486 10.4438V5.87513C6.37486 5.58139 6.65611 5.12515 7.34359 5.12515ZM13.8747 12.3124C13.8747 13.1755 13.1751 13.875 12.3121 13.875C11.4493 13.875 10.7497 13.1755 10.7497 12.3124C10.7497 11.4496 11.4493 10.75 12.3121 10.75C13.1751 10.75 13.8747 11.4496 13.8747 12.3124Z" fill="url(#paint0_linear_364_3411)"/>
<defs>
<linearGradient id="paint0_linear_364_3411" x1="2" y1="3.26678" x2="18.1122" y2="20.7104" gradientUnits="userSpaceOnUse">
<stop stop-color="#7B6BE8"/>
<stop offset="0.5" stop-color="#5480EF"/>
<stop offset="1" stop-color="#2CA6F2"/>
</linearGradient>
</defs>
</svg>

<svg xmlns="http://www.w3.org/2000/svg" width="24" height="24" fill="none" viewBox="0 0 24 24">
    <path fill="url(#BORA__a)" fill-rule="evenodd" d="M4.894 2h8.15c3.193 0 8.887 3.069 8.955 9.644C22.043 15.769 19.762 22 11.97 22 7.405 22 2 18.625 2 12.863V5.069C2 4.081 2.937 2 4.894 2m2.45 3.125c.693 0 .906.5.906.75v1.631c.594-.406 2.406-1.125 4.012-1.125 2.038 0 5.988 1.713 5.988 5.857 0 4.137-3.2 5.943-5.988 6.012-2.787.062-5.156-1.713-5.85-3.581-.075-.313-.087-1.05.475-1.35.55-.3 1.225.106 1.363.525.256.78 1.912 2.53 4.012 2.53 2.394 0 4.113-1.705 4.113-4.136 0-2.438-1.963-3.988-4.113-3.988S8.77 9.625 8.1 11.031c-.181.394-.519.613-.963.375-.25-.131-.762-.5-.762-.962V5.875c0-.294.281-.75.969-.75m6.53 7.187a1.563 1.563 0 1 1-3.124 0 1.563 1.563 0 0 1 3.125 0" clip-rule="evenodd"/>
    <defs>
        <linearGradient id="BORA__a" x1="2" x2="18.112" y1="3.267" y2="20.71" gradientUnits="userSpaceOnUse">
            <stop stop-color="#7B6BE8"/>
            <stop offset=".5" stop-color="#5480EF"/>
            <stop offset="1" stop-color="#2CA6F2"/>
        </linearGradient>
    </defs>
</svg>
